!!!COM: Kittel, Johann Christian
!!!CDT: 1732/02/18-1809/04/17
!!!OPR: 24 Choräle mit acht verschiedenen Bässen
!!!ONM: 3
!!!OTL@@DE: Nun freut euch, liebe Christengemein’
**kern	**fb	**kern	**fb	**kern	**fb	**kern	**fb	**kern	**fb	**kern	**fb	**kern	**fb	**kern	**fb	**kern
*	*slash	*	*slash	*	*slash	*	*slash	*	*slash	*	*slash	*	*slash	*	*slash	*
*	*above	*	*above	*	*above	*	*above	*	*above	*	*above	*	*above	*	*above	*
*I"8	*	*I"7	*	*I"6	*	*I"5	*	*I"4	*	*I"3	*	*I"2	*	*I"1	*	*I"c.f.
*I'8	*	*I'7	*	*I'6	*	*I'5	*	*I'4	*	*I'3	*	*I'2	*	*I'1	*	*I'c.f.
*clefF4	*	*clefF4	*	*clefF4	*	*clefF4	*	*clefF4	*	*clefF4	*	*clefF4	*	*clefF4	*	*clefG2
*k[f#c#g#]	*	*k[f#c#g#]	*	*k[f#c#g#]	*	*k[f#c#g#]	*	*k[f#c#g#]	*	*k[f#c#g#]	*	*k[f#c#g#]	*	*k[f#c#g#]	*	*k[f#c#g#]
*M4/4	*	*M4/4	*	*M4/4	*	*M4/4	*	*M4/4	*	*M4/4	*	*M4/4	*	*M4/4	*	*M4/4
*met(c)	*	*met(c)	*	*met(c)	*	*met(c)	*	*met(c)	*	*met(c)	*	*met(c)	*	*met(c)	*	*met(c)
*MM180	*	*MM180	*	*MM180	*	*MM180	*	*MM180	*	*MM180	*	*MM180	*	*MM180	*	*MM180
=1	=1	=1	=1	=1	=1	=1	=1	=1	=1	=1	=1	=1	=1	=1	=1	=1
2r	.	2r	.	2r	.	2r	.	2r	.	2r	.	2r	.	2r	.	2r
*A:	*	*A:	*	*A:	*	*A:	*	*A:	*	*A:	*	*A:	*	*A:	*	*A:
2C#	6	2A	.	2C#	6	2AA	.	2A	.	2AA	.	2AA	.	2A	.	2a
=2.	=2.	=2.	=2.	=2.	=2.	=2.	=2.	=2.	=2.	=2.	=2.	=2.	=2.	=2.	=2.	=2.
*	*	*	*	*	*	*	*	*	*	*	*	*	*	*	*	*^
!LO:N:vis=2	!	!	!	!	!	!	!	!	!	!	!	!	!	!	!	!	!
1F#	3 6_	2F#	3 6	2D	5 3_	2F#	.	2.F#	.	2C#	6	2D	5 3	2F#	.	2a	4ayy
.	4 x_	.	4 2	.	5 X	.	.	.	.	.	.	.	6 4	.	.	.	4bN/
*	*	*	*	*	*	*	*	*	*	*	*	*	*	*	*	*v	*v
.	5 #6|	(4C#	6	2AA	.	2E	6	.	x_	2AA	.	(4C#	6	(4C#	6_	2cc#
.	.	4D)	.	.	.	.	.	4E	X	.	.	4D)	.	4D)	X	.
=3.	=3.	=3.	=3.	=3.	=3.	=3.	=3.	=3.	=3.	=3.	=3.	=3.	=3.	=3.	=3.	=3.
*	*	*	*	*	*	*	*	*f#:	*	*	*	*	*	*	*	*
2G#	6	[2E	8	1E	5 3	2D	X 6	(4D#	6	(4D	6	2E	8	2E	.	2b
.	5n	.	7	.	.	.	4 2	4E#)	6 5	4E)	.	.	7	.	.	.
1A	8 3	(4E]	6 4	.	4 2	2C#	6	(4F#	.	(4F#	.	(4F#	.	2F#	.	2a
.	.	8F#L	.	.	.	.	.	4EnX)	.	4E)	.	4E)	.	.	.	.
.	.	8EJ)	.	.	.	.	.	.	.	.	.	.	.	.	.	.
=4.	=4.	=4.	=4.	=4.	=4.	=4.	=4.	=4.	=4.	=4.	=4.	=4.	=4.	=4.	=4.	=4.
*	*	*	*	*	*	*	*	*A:	*	*	*	*	*	*	*	*
.	4 2_	(4D	6_	2D	6	2F#	#6| 4 3	(4D	6 5	2D	6	(4D	6_	2BB	.	2b
.	3 X	4C#)	X	.	5	.	.	4BB)	.	.	5	4C#)	X	.	.	.
2G#	6	2BB	6	2E	.	2E	5 3	2E	4	2E	.	2BB	6	2E	.	2b
.	.	.	.	.	.	.	.	.	3	.	.	.	.	.	.	.
=5.	=5.	=5.	=5.	=5.	=5.	=5.	=5.	=5.	=5.	=5.	=5.	=5.	=5.	=5.	=5.	=5.
1A;	.	1AA;	.	1AA;	.	1A;	.	1AA;	.	1AA;	.	1AA;	.	1AA;	.	1cc#;
=6	=6	=6	=6	=6	=6	=6	=6	=6	=6	=6	=6	=6	=6	=6	=6	=6
2r	.	2r	.	2r	.	2r	.	2r	.	2r	.	2r	.	2r	.	2r
*	*	*	*	*	*	*	*	*	*	*	*	*	*	*	*	*^
*	*	*	*	*	*	*	*	*D:	*	*	*	*	*	*	*	*	*
2D	.	2D	5 3	[1A	.	2F#	.	2A	.	2D	5 3_	2D	5	2AA	.	2aL	4ayy
.	.	.	4 3	.	.	.	.	.	.	.	6 X	.	6	.	.	.	4bN/
*	*	*	*	*	*	*	*	*	*	*	*	*	*	*	*	*v	*v
=7.	=7.	=7.	=7.	=7.	=7.	=7.	=7.	=7.	=7.	=7.	=7.	=7.	=7.	=7.	=7.	=7.
(4A	.	2C#	6	.	.	2E	4 n	2GnX	4 2	2.A	3 5	2C#	6	2A	.	2cc#
4GnX)	.	.	.	.	.	.	.	.	.	.	.	.	.	.	.	.
4F#	6_	2BB	7	2A]	4_ 6_ 4	2D	6	2F#	6	.	4_ 2_	(4BB	.	2F#	6	2dd
4FnX	X	.	.	.	X X 3	.	.	.	.	8BL	.	4AA)	.	.	.	.
.	.	.	.	.	.	.	.	.	.	8AJ	X X	.	.	.	.	.
=8.	=8.	=8.	=8.	=8.	=8.	=8.	=8.	=8.	=8.	=8.	=8.	=8.	=8.	=8.	=8.	=8.
*	*	*	*	*	*	*	*	*	*	*	*	*	*	*	*	*^
*	*	*	*	*	*	*	*	*A:	*	*	*	*	*	*	*	*	*
[2E	8	2E	8	2G#	6	2.C#	7_	2.C#	3 6	4G#	6	2GG#	6	2E	.	2ee\	4eeyy
.	7	.	7	.	5	.	X	.	.	4E	7	.	5	.	.	.	4ddN
*	*	*	*	*	*	*	*	*	*	*	*	*	*	*	*	*v	*v
2E]	6 4	2AA	.	2A	.	.	6_	.	6_	[2A	.	2AA	.	2A	.	2cc#
.	.	.	.	.	.	4D	X	4D	X	.	.	.	.	.	.	.
=9.	=9.	=9.	=9.	=9.	=9.	=9.	=9.	=9.	=9.	=9.	=9.	=9.	=9.	=9.	=9.	=9.
1EE	5 4_ 7	2E	5 4_ 8	1E	5 4_ 8_	2E	4_ 3_	1E	5 4_ 8_	2A]	4 2	1E	4 8_	1E	5 4_ 8_	(4b
.	4 x_ 6	.	4 x_ X	.	4 x_ x_	.	.	.	4 x_ x_	.	3 8	.	3 x_	.	4 x_ x_	4a)
.	5 3_ 5	2EE	5 3 X	.	5 3 x_	2EE	3 _	.	5 3 x_	2G#	6	.	X 7	.	5 3 x_	2b
.	X x_ 7	.	X X 7	.	X X 7	.	X 7	.	X X 7	.	5	.	.	.	X X 7	.
=10.	=10.	=10.	=10.	=10.	=10.	=10.	=10.	=10.	=10.	=10.	=10.	=10.	=10.	=10.	=10.	=10.
1AA;	8 3	1AA;	8 3	1AA;	8 3	1AA;	8 3	1AA;	8 3	1A;	.	1AA;	8 3	1AA;	8 3	1a;
=11:|!	=11:|!	=11:|!	=11:|!	=11:|!	=11:|!	=11:|!	=11:|!	=11:|!	=11:|!	=11:|!	=11:|!	=11:|!	=11:|!	=11:|!	=11:|!	=11:|!
2r	.	2r	.	2r	.	2r	.	2r	.	2r	.	2r	.	2r	.	2r
*f#:	*	*	*	*	*	*	*	*	*	*	*	*	*	*	*	*
2F#	.	2AA	.	2A	.	2F#	.	2A	.	2AA	.	2AA	.	2AA	.	2cc#
=12.	=12.	=12.	=12.	=12.	=12.	=12.	=12.	=12.	=12.	=12.	=12.	=12.	=12.	=12.	=12.	=12.
(4E#	6	[2E	6 4	2F#	#6| 5	2C#	6	2F#	6 5	2E	6 4	2E	6 4	2A	.	2cc#
4EnX)	#4| n	.	.	.	.	.	.	.	.	.	.	.	.	.	.	.
(4D#	6	2E]	5 7	2G#	6 5n	2D	6	2G#	6 5	2D	4 2	2E#	n7 5	2E	.	2b
4DnX)	#4| n	.	.	.	.	.	.	.	.	.	.	.	.	.	.	.
=13.	=13.	=13.	=13.	=13.	=13.	=13.	=13.	=13.	=13.	=13.	=13.	=13.	=13.	=13.	=13.	=13.
*	*	*	*	*	*	*	*	*	*	*	*	*	*	*f#:	*	*
(4C#	6_	2E	6 4	2A	.	2.E	6_ 4_	2A	.	2C#	6	2F#	9	2F#	.	2a
4CnX)	X	.	.	.	.	.	.	.	.	.	.	.	8	.	.	.
*A:	*	*	*	*	*	*	*	*	*	*	*	*	*	*	*	*
(4BB	6_	2FnX	4 #2|	2DnX	4 n	.	5_ 3	2D	4 2	2BB	4 3	[2C#	4	2C#	#	2g#
4E)	X	.	.	.	.	4D	X	.	.	.	.	.	#	.	.	.
=14.	=14.	=14.	=14.	=14.	=14.	=14.	=14.	=14.	=14.	=14.	=14.	=14.	=14.	=14.	=14.	=14.
2AA	8 3	(4E	6 4	(4C#	6	2C#	6	2C#	6	2C#	6	(4C#]	6 4	2F#	.	(4a
.	.	4D)	4 2	4BB)	6	.	.	.	.	.	.	4BB)	6	.	.	4b)
*	*	*	*	*	*	*	*	*	*	*	*	*	*	*A:	*	*
2A	.	(4C#	6	2AA	5	2AA	.	2AA	.	2AA	.	2AA	.	(4C#	6	2cc#
.	.	4AA)	.	.	6	.	.	.	.	.	.	.	.	4D)	.	.
.	.	.	.	.	5	.	.	.	.	.	.	.	.	.	.	.
=15.	=15.	=15.	=15.	=15.	=15.	=15.	=15.	=15.	=15.	=15.	=15.	=15.	=15.	=15.	=15.	=15.
1E;	5_ 4	1E;	4	1AA;	#4| 2	1E;	4	1E;	4	1E;	4	1E;	4	1E;	4	1b;
.	X 3	.	3	.	.	.	3	.	3	.	3	.	3	.	3	.
=16	=16	=16	=16	=16	=16	=16	=16	=16	=16	=16	=16	=16	=16	=16	=16	=16
2r	.	2r	.	2r	.	2r	.	2r	.	2r	.	2r	.	2r	.	2r
*	*	*f#:	*	*f#:	*	*	*	*	*	*	*	*f#:	*	*	*	*
2D	6	2D	6	2GG#	#6| 4 3	2D	6	2D	4 n	2D	4 2	2G#	#6| 5	(4E	.	2b
.	.	.	.	.	.	.	.	.	.	.	.	.	.	4D)	.	.
=17.	=17.	=17.	=17.	=17.	=17.	=17.	=17.	=17.	=17.	=17.	=17.	=17.	=17.	=17.	=17.	=17.
2E	6 4	2C#	6 4	2FF#	.	2E	6 4	2C#	6	2C#	6	2A	.	2C#	6	2a
*	*	*	*	*	*	*f#:	*	*	*	*	*	*	*	*	*	*
2FnX	4 #2|	2C#	5 #	2EE#	6	2E#	n7 5	2BB	4 3	2BB	4 3	2B	4 3	2BB	6	2g#
=18.	=18.	=18.	=18.	=18.	=18.	=18.	=18.	=18.	=18.	=18.	=18.	=18.	=18.	=18.	=18.	=18.
2E	6 4	(4F#	.	(4FF#	.	(4F#	3_ 5_	2AA	4	2AA	.	2A	.	2AA	.	2a
.	.	4G#)	.	4GG#)	.	4G#)	.	.	3	.	.	.	.	.	.	.
2D	4 2	(4A	5 3	(4AA	5 3	(4A	5_ 3_	2GG#	6	2GG#	6	2G#	6	(4A	5_ 3_	2e
.	.	4G#)	.	4GG#)	.	4G#)	.	.	.	.	.	.	.	4G#)	X X	.
=19.	=19.	=19.	=19.	=19.	=19.	=19.	=19.	=19.	=19.	=19.	=19.	=19.	=19.	=19.	=19.	=19.
*	*	*	*	*	*	*	*	*	*	*f#:	*	*	*	*	*	*
2C#	6	1F#	3 5	2FF#	.	(4F#	5_ 3_	2FF#	5	2FF#	.	(4F#	.	2F#	5	2a
.	.	.	.	.	.	4E)	.	.	6n	.	.	4E)	.	.	#6|	.
2BB	6	.	4 2	2D	6	(4D	6	2EE	3	2D	6	2D	6	2E	.	2b
.	.	.	.	.	.	4BB)	.	.	.	.	.	.	.	.	.	.
=20.	=20.	=20.	=20.	=20.	=20.	=20.	=20.	=20.	=20.	=20.	=20.	=20.	=20.	=20.	=20.	=20.
1AA;	.	1E#;	6	1C#;	4	1F#;	4	1AA;	.	1EE#;	6	1C#;	4	1A;	.	1cc#;
.	.	.	.	.	#	.	3	.	.	.	.	.	#	.	.	.
=21	=21	=21	=21	=21	=21	=21	=21	=21	=21	=21	=21	=21	=21	=21	=21	=21
2r	.	2r	.	2r	.	2r	.	2r	.	2r	.	2r	.	2r	.	2r
*	*	*	*	*	*	*	*	*	*	*	*	*	*	*	*	*^
*	*	*	*	*	*	*	*	*	*	*D:	*	*	*	*	*	*	*
2D	5	2FF#	.	[2F#	3 5	2F#	.	[2A	.	2A	.	2F#	.	2AA	.	2a	4ayy
.	6	.	.	.	4	.	.	.	.	.	.	.	.	.	.	.	4bN/
*	*	*	*	*	*	*	*	*	*	*	*	*	*	*	*	*v	*v
=22.	=22.	=22.	=22.	=22.	=22.	=22.	=22.	=22.	=22.	=22.	=22.	=22.	=22.	=22.	=22.	=22.
2C#	6	2.F#	5 3_	4F#]	5 3	2E	4 n	4A]	8	2GnX	4 2	2A	6	2A	.	2cc#
*	*	*	*	*	*	*	*	*b:	*	*	*	*	*	*	*	*
.	#6|	.	.	2E	4 n	.	.	4A#	n7	.	.	.	.	.	.	.
(4BB	5 3_	.	6_ X	.	.	2D	6	(4B	.	2F#	6	(4B	.	2F#	6	2dd
4AA)	X X	4FnX	X 3	4D	6	.	.	4AnX)	.	.	.	4A)	.	.	.	.
=23.	=23.	=23.	=23.	=23.	=23.	=23.	=23.	=23.	=23.	=23.	=23.	=23.	=23.	=23.	=23.	=23.
*	*	*	*	*	*	*	*	*	*	*	*	*	*	*	*	*^
*	*	*A:	*	*A:	*	*A:	*	*A:	*	*A:	*	*A:	*	*	*	*	*
2GG#	6	2E	8	4C#	6	2.C#	7	2G#	6	2G#X	6	2G#	6	2E	.	2ee\	4eeyy
.	5	.	7	4GG#	6 5	.	.	.	5	.	5	.	5	.	.	.	4ddN
*	*	*	*	*	*	*	*	*	*	*	*	*	*	*	*	*v	*v
2AA	.	2A	.	4AA	9	.	6_	[2A	6	2A	.	[2A	.	2A	.	2cc#
.	.	.	.	4C#	6	4D	X	.	5	.	.	.	.	.	.	.
=24.	=24.	=24.	=24.	=24.	=24.	=24.	=24.	=24.	=24.	=24.	=24.	=24.	=24.	=24.	=24.	=24.
2.E	5 4_ 8_	2E	5 4_ 8_	2E	5 4_ 8_	2E	4_ 3_	2A]	#4| 2	2E	4	2A]	4 2	1E	5 4 8	(4b
.	4 x_ x_	.	4 x_ x_	.	4 x_ x_	.	.	.	.	.	.	.	.	.	4 x_ x_	4a)
*	*	*	*	*	*	*	*	*f#:	*	*	*	*	*	*	*	*
.	5 3 x_	2E#	5 3 7	2EE	5_ 3_ x_	2EE	3 x_	2G#	#6|	2E#	n7	[2GnX	6_ 3	.	5 3 x_	2b
4E	X X 7	.	.	.	X X 7	.	X 7	.	.	.	.	.	X 5	.	X X 7	.
=25.	=25.	=25.	=25.	=25.	=25.	=25.	=25.	=25.	=25.	=25.	=25.	=25.	=25.	=25.	=25.	=25.
4FnX	5 3	(4F#	5 3	1AA;	8 3	1AA;	8 3	2F#	3 5	4F#	9	4G]	.	1AA;	8 3	1a;
4CnX	6	4D)	5 3	.	.	.	.	.	.	8C#L	6 5n	8F#L	6	.	.	.
.	.	.	.	.	.	.	.	.	.	8DJ	5 3	8DJ	.	.	.	.
*	*	*	*	*	*	*	*	*A:	*	*	*	*	*	*	*	*
4D	n	2AA;	6 4	.	.	.	.	4E	4 n	2A;	5 3	2A;	6 4	.	.	.
4D#	n7 #	.	5 3	.	.	.	.	4D	5 3	.	.	.	5 3	.	.	.
=26.	=26.	=26.	=26.	=26.	=26.	=26.	=26.	=26.	=26.	=26.	=26.	=26.	=26.	=26.	=26.	=26.
2E	4_ 5	1ryy	.	1ryy	.	1ryy	.	2A;	6 4	1ryy	.	1ryy	.	1ryy	.	1ryy
.	x #6|	.	.	.	.	.	.	.	5 3	.	.	.	.	.	.	.
2EE	7 3	.	.	.	.	.	.	2ryy	.	.	.	.	.	.	.	.
=26.	=26.	=26.	=26.	=26.	=26.	=26.	=26.	=26.	=26.	=26.	=26.	=26.	=26.	=26.	=26.	=26.
1AA;	8 3	1ryy	.	1ryy	.	1ryy	.	1ryy	.	1ryy	.	1ryy	.	1ryy	.	1ryy
==	==	==	==	==	==	==	==	==	==	==	==	==	==	==	==	==
*-	*-	*-	*-	*-	*-	*-	*-	*-	*-	*-	*-	*-	*-	*-	*-	*-
!!!RDF**kern: N = cue size
!!!AGN: chorale
!!!EED: Wolfgang Drescher
!!!END: 2023/05/02
!!!ENC: Wolfgang Drescher
!!!END: 2023/05/02
!!!title: @{ONM}. @{OTL@@DE}